X:1
T: Lady Perth's Strathspey
C:
R:Strathspey
Q: 128
K:Am
M:4/4
L:1/16
|:a2|AA3 e3d B2d2 e4|Bg3 dg3 Bg3 BG3|AA3 e3d Bd3 eg3|ae3 gB3 A4 A2a2|
AA3 e3d B2d2 e4|Bg3 dg3 Bg3 BG3|AA3 e3d Bd3 eg3|ae3 gB3 A4 A2g2|
aa3 ea3 ca3 ea3|gg3 dg3 Bg3 dg3|aa3 ea3 ca3 eg3|ae3 gB3 A4 A2g2|
aa3 ea3 ca3 ea3|gg3 dg3 Bg3 dg3|aa3 ea3 ga3 eg3|de3 gB3 A4 A2:|
